!!!COM: Palestrina, Giovanni Perluigi da
!!!OPR: Missa Hodie Christus Natus Est
!!!OMD: Kyrie
!!!OTL: First Section
**kern	**kern	**kern	**kern	**kern	**kern	**kern	**kern
*Ibass	*Itenor	*Itenor	*Icalto	*Ibass	*Icalto	*Icant	*Icant
!Bassus	!Tenor 2	!Tenor 1	!Altus	!Bassus	!Altus	!Cantus 2	!Cantus 1
*clefF4	*clefGv2	*clefGv2	*clefG2	*clefF4	*clefG2	*clefG2	*clefG2
*k[]	*k[]	*k[]	*k[]	*k[]	*k[]	*k[]	*k[]
*G:mix	*G:mix	*G:mix	*G:mix	*G:mix	*G:mix	*G:mix	*G:mix
*M4/2	*M4/2	*M4/2	*M4/2	*M4/2	*M4/2	*M4/2	*M4/2
=1	=1	=1	=1	=1	=1	=1	=1
0r	0r	0r	0r	1.G	1.g	1.b	1.dd
.	.	.	.	2G	2g	2b	2dd
=2	=2	=2	=2	=2	=2	=2	=2
0r	0r	0r	0r	1G	1g	1b	1dd
.	.	.	.	[1c	[1g	[1cc	[1ee
=3	=3	=3	=3	=3	=3	=3	=3
0r	0r	0r	0r	1c]	1g]	1cc]	1ee]
.	.	.	.	1G	1g	1b	1dd
=4	=4	=4	=4	=4	=4	=4	=4
0r	0r	0r	0r	1A	1e	1.a	1cc#
.	.	.	.	1d	1f#	.	1dd
.	.	.	.	.	.	2b	.
=5	=5	=5	=5	=5	=5	=5	=5
1.C	1.c	1.e	1.g	0c	2.g	0cc	0ee
.	.	.	.	.	4f	.	.
.	.	.	.	.	4e	.	.
.	.	.	.	.	4d	.	.
2C	2c	2e	2g	.	2c	.	.
=6	=6	=6	=6	=6	=6	=6	=6
1C	1c	1e	1g	0r	0r	0r	0r
[1F	[1c	[1f	[1a	.	.	.	.
=7	=7	=7	=7	=7	=7	=7	=7
1F]	1c]	1f]	1a]	0r	0r	0r	0r
1C	1c	1e	1g	.	.	.	.
=8	=8	=8	=8	=8	=8	=8	=8
1D	1A	1.d	1f#	0r	0r	0r	0r
1G	1B	.	1g	.	.	.	.
.	.	2e	.	.	.	.	.
=9	=9	=9	=9	=9	=9	=9	=9
1F	1c	1f	1a	2r	2r	1r	2r
.	.	.	.	2F	2f	.	2a
1r	1r	1r	1r	2G	2d	2r	2b
.	.	.	.	2E	2e	2g	2cc
=10	=10	=10	=10	=10	=10	=10	=10
1r	1r	1r	1r	2D	2f#	2a	2dd
.	.	.	.	2D	2f#	2b	2dd
2r	2r	2r	2r	1C	1g	2cc	1ee
2c	2e	2g	2cc	.	.	2cc	.
=11	=11	=11	=11	=11	=11	=11	=11
2G	2d	2g	2b	2r	2r	1dd	2r
2B	2d	2g	2b	2G	2g	.	2dd
2c	2c	2e	2.g	2C	2g	2r	2ee
2c	2e	2c	.	2C	2g	2cc	2ee
.	.	.	4a	.	.	.	.
=12	=12	=12	=12	=12	=12	=12	=12
1G	1g	1d	1b	2G	2g	2b	2dd
.	.	.	.	2G	2g	2dd	2b
2r	2r	2r	2r	1C	1g	2ee	1cc
2c	2g	2e	2cc	.	.	2ee	.
=13	=13	=13	=13	=13	=13	=13	=13
2d	2f	2f	2a	0r	0r	1dd	0r
2B	2d	2g	2b	.	.	.	.
2c	2e	2g	2g	.	.	1r	.
2A	2c	2f#	2cc	.	.	.	.
=14	=14	=14	=14	=14	=14	=14	=14
1G	1d	1g	1b	2r	2r	2r	2r
.	.	.	.	2G	2g	2b	2dd
1r	1r	1r	1r	2A	2e	2a	2cc
.	.	.	.	2F	2f	2a	2cc
=15	=15	=15	=15	=15	=15	=15	=15
1r	1r	1r	1r	2G	2d	4g	2b
.	.	.	.	.	.	4a	.
.	.	.	.	2E	2g	4b	2g
.	.	.	.	.	.	4cc	.
2r	2r	2r	2r	1D	1f#	1dd	1a
2d	[2d	2d	2a	.	.	.	.
=16	=16	=16	=16	=16	=16	=16	=16
2B	2d]	2G	2g	1G	1g	2dd	1b
2B	2G	1g	2d	.	.	2dd	.
2c	1g	.	4e	2C	1e	2cc	1g
.	.	.	4f	.	.	.	.
2C	.	2c	4g	2c	.	2ee	.
.	.	.	4a	.	.	.	.
=17	=17	=17	=17	=17	=17	=17	=17
1G	2G	[0d	4b	2.B	1g	1dd	2b
.	.	.	4a	.	.	.	.
.	2B	.	1g	.	.	.	2.dd
.	.	.	.	4G	.	.	.
1D	1A	.	.	2.d	2a	1dd	.
.	.	.	.	.	.	.	4cc
.	.	.	2f#	.	[2d	.	2a
.	.	.	.	4c	.	.	.
=18	=18	=18	=18	=18	=18	=18	=18
1G	1G	1d]	1g	2B	4d]	2.dd	2.b
.	.	.	.	.	4c	.	.
.	.	.	.	2G	4B	.	.
.	.	.	.	.	4A	4cc	4cc
2r	2r	2r	2r	1G	1B	4b	1dd
.	.	.	.	.	.	4a	.
2G	2B	2d	2g	.	.	2g	.
=19	=19	=19	=19	=19	=19	=19	=19
2A	2c	2c	2e	0r	1r	0r	0r
2F	2d	2A	2a	.	.	.	.
2G	2d	2B	2.g	.	2r	.	.
2E	2e	2G	.	.	2g	.	.
.	.	.	8f	.	.	.	.
.	.	.	8e	.	.	.	.
=20	=20	=20	=20	=20	=20	=20	=20
1D	1A	1d	2f	0r	2a	2r	2r
.	.	.	2d	.	2f	2a	2dd
1r	1r	1r	1r	.	2g	2b	2ee
.	.	.	.	.	2e	2g	2cc
=21	=21	=21	=21	=21	=21	=21	=21
0r	0r	0r	0r	0r	2.d	2a	2dd
.	.	.	.	.	.	2dd	2b
.	.	.	.	.	4e	.	.
.	.	.	.	.	2f	2cc	2a
.	.	.	.	.	2g	2b	[2g
=22	=22	=22	=22	=22	=22	=22	=22
0r	0r	0r	0r	1r	1d	2a	2g]
.	.	.	.	.	.	2dd	2f#
.	.	.	.	2r	2r	2b	1g
.	.	.	.	2c	2g	[2ee	.
=23	=23	=23	=23	=23	=23	=23	=23
0r	0r	0r	0r	2d	2f	4ee]	2r
.	.	.	.	.	.	4dd	.
.	.	.	.	2B	2g	2.dd	2dd
.	.	.	.	2c	2.e	.	2ee
.	.	.	.	.	.	4cc	.
.	.	.	.	2A	.	[2cc	2cc
.	.	.	.	.	4c	.	.
=24	=24	=24	=24	=24	=24	=24	=24
2r	2r	2r	2r	1G	1g	2cc]	2dd
2G	2d	2G	2g	.	.	2b	2dd
2C	2e	2G	2e	2r	2.e	2cc	1cc
2C	2c	2G	2e	2c	.	[2g	.
.	.	.	.	.	4f	.	.
=25	=25	=25	=25	=25	=25	=25	=25
0G	1.d	2.B	4d	2B	1g	2g]	2r
.	.	.	4c	.	.	.	.
.	.	.	4B	2G	.	2.b	1dd
.	.	4c	4A	.	.	.	.
.	.	[1d	2G	2.B	2d	.	.
.	.	.	.	.	.	4cc	.
.	2B	.	[2d	.	[2g	[2dd	2g
.	.	.	.	8A	.	.	.
.	.	.	.	8G	.	.	.
=26	=26	=26	=26	=26	=26	=26	=26
0D	0A	0d]	4d]	0d	2g]	2dd]	2a
.	.	.	4e	.	.	.	.
.	.	.	4f#	.	4f#	2a	2.dd
.	.	.	4g	.	4e	.	.
.	.	.	2a	.	1f#	1dd	.
.	.	.	.	.	.	.	4cc
.	.	.	2d	.	.	.	2a
=27	=27	=27	=27	=27	=27	=27	=27
0G	0G	0B	0d	0G	0g	0dd	0b
*-	*-	*-	*-	*-	*-	*-	*-
!!!CDT: 1525/^1526/-1594/2/2
!!!OCY: Italia
!!!AGN: Mass (Parody)
!!!AST: renaissance, vocal
!!!ASW: Motet 1575 (Palestrina)
!!!PWK: Masses, Book 8vce
!!!RNB: Cadence finals: C,D
!!!YOR: Le Opere Complete, v. 30, p. 59
!!!YOO: Rome, Italy: Fratelli Scalera
!!!END: 1992//
!!!EED: John Miller
!!!YEC: Copyright 2000, John Miller
!!!YEN: United States of America
!!!YEM: Rights to all derivative electronic formats reserved.
!!!YEM: Refer to licensing agreement for further details.
!!!YEM: This file must be accompanied by the licensing agreement.
!!!YEM: A copy of the licensing agreement may be found at http://www.music-cog.ohio-state.edu/HumdrumDatabases/Palestrina/license.txt
!!!EMD: converted to Humdrum by Bret Aarden
